dist/icons/benefits/1.svg

<svg width="60" height="60" viewBox="0 0 60 60" fill="none" xmlns="http://www.w3.org/2000/svg">
<g clip-path="url(#clip0)">
<path d="M33.8452 50.9373H5.96811V18.6806L20.3681 4.37292H47.045V20.2498C47.045 20.6191 47.322 20.9883 47.7835 20.9883C48.245 20.9883 48.522 20.7114 48.522 20.2498V3.63446C48.522 3.26523 48.245 2.896 47.7835 2.896H20.0912C19.9066 2.896 19.722 2.9883 19.6297 3.08061L4.76811 17.9422C4.6758 18.0345 4.5835 18.2191 4.5835 18.4037V51.5835C4.5835 51.9527 4.86042 52.322 5.32196 52.322H33.8452C34.2144 52.322 34.5837 52.045 34.5837 51.5835C34.5837 51.122 34.2144 50.9373 33.8452 50.9373Z" fill="black" fill-opacity="0.8"/>
<path d="M20.7372 18.4038V7.32684C20.7372 6.95761 20.4602 6.58838 19.9987 6.58838C19.5372 6.58838 19.2602 6.8653 19.2602 7.32684V17.7576H9.0141C8.64487 17.7576 8.27563 18.0345 8.27563 18.4961C8.27563 18.9576 8.55256 19.2345 9.0141 19.2345H20.091C20.4602 19.1422 20.7372 18.773 20.7372 18.4038Z" fill="black" fill-opacity="0.8"/>
<path d="M41.3221 24.9692H10.8605C10.4913 24.9692 10.1221 25.2462 10.1221 25.7077C10.1221 26.1692 10.399 26.4462 10.8605 26.4462H41.3221C41.6913 26.4462 42.0605 26.1692 42.0605 25.7077C42.0605 25.2462 41.6913 24.9692 41.3221 24.9692Z" fill="black" fill-opacity="0.8"/>
<path d="M41.968 31.6845C41.968 31.3153 41.6911 30.946 41.2295 30.946H10.768C10.3988 30.946 10.0295 31.223 10.0295 31.6845C10.0295 32.146 10.3065 32.423 10.768 32.423H41.2295C41.6911 32.423 41.968 32.0537 41.968 31.6845Z" fill="black" fill-opacity="0.8"/>
<path d="M10.8605 36.9231C10.4913 36.9231 10.1221 37.2 10.1221 37.6616C10.1221 38.1231 10.399 38.4 10.8605 38.4H35.7836C36.1528 38.4 36.5221 38.1231 36.5221 37.6616C36.5221 37.2 36.2451 36.9231 35.7836 36.9231H10.8605Z" fill="black" fill-opacity="0.8"/>
<path d="M10.8635 42.8999C10.4942 42.8999 10.125 43.1768 10.125 43.6384C10.125 44.0999 10.4019 44.3768 10.8635 44.3768H33.4399C33.8092 44.3768 34.1784 44.0999 34.1784 43.6384C34.1784 43.1768 33.9015 42.8999 33.4399 42.8999H10.8635Z" fill="black" fill-opacity="0.8"/>
<path d="M41.9679 7.32684C41.9679 6.95761 41.691 6.58838 41.2294 6.58838H30.1525C29.7833 6.58838 29.4141 6.8653 29.4141 7.32684V20.2499C29.4141 20.6192 29.691 20.9884 30.1525 20.9884H41.2294C41.5987 20.9884 41.9679 20.7115 41.9679 20.2499V7.32684ZM40.5833 19.6038H30.891V8.0653H40.5833V19.6038Z" fill="black" fill-opacity="0.8"/>
<path fill-rule="evenodd" clip-rule="evenodd" d="M49.4762 52.1938L49.4939 52.1773C50.3511 51.3772 51.4165 50.9532 52.548 50.9532C53.7018 50.9532 54.6596 50.0163 54.6596 48.8012C54.6596 47.6629 55.1301 46.5399 55.9173 45.7527C56.7429 44.9271 56.7429 43.5532 55.9173 42.7276C55.0795 41.8897 54.6596 40.8026 54.6596 39.6791C54.6596 38.5045 53.7019 37.5271 52.5077 37.5271C51.3693 37.5271 50.2464 37.0566 49.4592 36.2695C48.6336 35.4438 47.2597 35.4438 46.434 36.2695C45.5962 37.1073 44.5091 37.5271 43.3856 37.5271C42.211 37.5271 41.2336 38.4848 41.2336 39.6791C41.2336 40.8174 40.7631 41.9404 39.9759 42.7276C39.5431 43.1604 39.3365 43.6555 39.3365 44.2402C39.3365 44.793 39.5493 45.3261 39.9759 45.7527C40.8138 46.5906 41.2336 47.6777 41.2336 48.8012C41.2336 49.9758 42.1913 50.9532 43.3856 50.9532C44.5239 50.9532 45.6469 51.4237 46.434 52.2109C46.8607 52.6375 47.3938 52.8502 47.9466 52.8502C48.4675 52.8502 49.0385 52.6315 49.4592 52.2109L49.4762 52.1938ZM56.0596 48.8012C56.0596 50.779 54.4855 52.3532 52.548 52.3532C51.7811 52.3532 51.0546 52.6357 50.4491 53.2008C49.763 53.887 48.8346 54.2502 47.9466 54.2502C47.0183 54.2502 46.1303 53.887 45.4441 53.2008C44.9194 52.6761 44.1525 52.3532 43.3856 52.3532C41.4078 52.3532 39.8336 50.7386 39.8336 48.8012C39.8336 48.0343 39.5511 47.3078 38.986 46.7427C38.2998 46.0565 37.9365 45.1685 37.9365 44.2402C37.9365 43.2714 38.2998 42.4238 38.986 41.7376C39.5107 41.2129 39.8336 40.446 39.8336 39.6791C39.8336 37.7013 41.4481 36.1271 43.3856 36.1271C44.1525 36.1271 44.879 35.8446 45.4441 35.2795C46.8164 33.9072 49.0768 33.9072 50.4491 35.2795C50.9739 35.8042 51.7408 36.1271 52.5077 36.1271C54.4855 36.1271 56.0596 37.7417 56.0596 39.6791C56.0596 40.446 56.3422 41.1725 56.9073 41.7376C58.2796 43.11 58.2796 45.3703 56.9073 46.7427C56.3825 47.2674 56.0596 48.0343 56.0596 48.8012Z" fill="black" fill-opacity="0.8"/>
<path fill-rule="evenodd" clip-rule="evenodd" d="M55.8453 52.6204L57.7847 56.7415L58.7463 58.8198L53.6528 56.9638L52.5918 59.8816L51.6809 61.9181L50.7432 59.9554L48.7251 55.6366L49.9935 55.0439L51.6062 58.4952L52.8155 55.1697L56.0515 56.3464L54.5786 53.2165L55.8453 52.6204Z" fill="black" fill-opacity="0.8"/>
<path fill-rule="evenodd" clip-rule="evenodd" d="M46.5138 55.8292L44.425 59.8766L43.3617 61.9047L41.7332 56.734L38.7726 57.6685L36.6024 58.1857L37.5886 56.2469L39.7863 52.0166L41.0287 52.662L39.2724 56.0426L42.6469 54.9775L43.6833 58.2611L45.2698 55.1871L46.5138 55.8292Z" fill="black" fill-opacity="0.8"/>
<path fill-rule="evenodd" clip-rule="evenodd" d="M53.7397 41.3806C53.5498 40.946 53.313 40.5372 53.0355 40.1605C52.4179 39.3222 51.5986 38.6429 50.6442 38.1915C49.2609 37.5373 47.6877 37.406 46.2151 37.8219C44.7426 38.2377 43.4704 39.1726 42.6338 40.4537C41.7971 41.7348 41.4525 43.2755 41.6637 44.7909C41.8748 46.3064 42.6275 47.6942 43.7825 48.6977C44.9376 49.7013 46.4169 50.2527 47.947 50.2502C49.4771 50.2476 50.9546 49.6912 52.1062 48.6838C52.9009 47.9886 53.5033 47.1113 53.8682 46.136C54.0318 45.6987 54.1476 45.2417 54.2116 44.7727C54.2117 44.7717 54.2119 44.7708 54.212 44.7699L52.7826 44.5756C52.6234 45.7464 52.0458 46.82 51.1564 47.598C50.2671 48.3759 49.1262 48.8056 47.9446 48.8076C46.763 48.8096 45.6206 48.3837 44.7287 47.6087C43.8367 46.8338 43.2555 45.7621 43.0924 44.5918C42.9294 43.4215 43.1955 42.2318 43.8416 41.2425C44.4877 40.2532 45.4701 39.5313 46.6072 39.2102C47.7443 38.889 48.9592 38.9904 50.0274 39.4956C51.0955 40.0008 51.9447 40.8756 52.4179 41.9583L53.7397 41.3806Z" fill="black" fill-opacity="0.8"/>
</g>
<defs>
<clipPath id="clip0">
<rect width="60" height="60" fill="white"/>
</clipPath>
</defs>
</svg>

<svg width="60" height="60" fill="none" xmlns="http://www.w3.org/2000/svg"><g clip-path="url(#clip0)" fill="#000" fill-opacity=".8"><path d="M33.845 50.937H5.968V18.681l14.4-14.308h26.677V20.25c0 .37.277.738.738.738.462 0 .739-.277.739-.738V3.634a.728.728 0 00-.739-.738H20.091a.705.705 0 00-.461.185L4.768 17.942a.705.705 0 00-.184.462v33.18c0 .369.276.738.738.738h28.523c.37 0 .739-.277.739-.739 0-.461-.37-.646-.739-.646z"/><path d="M20.737 18.404V7.327A.728.728 0 0020 6.588c-.462 0-.739.277-.739.739v10.43H9.014a.728.728 0 00-.738.74c0 .46.277.738.738.738h11.077a.887.887 0 00.646-.831zm20.585 6.566H10.86a.728.728 0 00-.738.738c0 .461.277.738.739.738h30.461c.37 0 .738-.277.738-.738a.728.728 0 00-.738-.739zm.646 6.714a.728.728 0 00-.739-.738h-30.46a.728.728 0 00-.739.738c0 .462.277.739.739.739H41.23c.461 0 .738-.37.738-.739zM10.86 36.923a.728.728 0 00-.738.739c0 .461.277.738.739.738h24.923a.728.728 0 00.738-.738c0-.462-.277-.739-.738-.739H10.86zm.004 5.977a.728.728 0 00-.739.738c0 .462.277.739.739.739H33.44c.37 0 .738-.277.738-.739 0-.461-.276-.738-.738-.738H10.864zM41.968 7.327a.728.728 0 00-.739-.739H30.153a.728.728 0 00-.739.739V20.25c0 .37.277.738.738.738H41.23c.37 0 .739-.276.739-.738V7.327zm-1.385 12.277h-9.692V8.065h9.692v11.539z"/><path fill-rule="evenodd" clip-rule="evenodd" d="M49.476 52.194l.018-.017c.857-.8 1.922-1.224 3.054-1.224 1.154 0 2.112-.937 2.112-2.152 0-1.138.47-2.261 1.257-3.048.826-.826.826-2.2 0-3.025a4.269 4.269 0 01-1.257-3.049 2.157 2.157 0 00-2.152-2.152 4.369 4.369 0 01-3.049-1.258 2.157 2.157 0 00-3.025 0 4.268 4.268 0 01-3.048 1.258 2.157 2.157 0 00-2.152 2.152c0 1.138-.47 2.261-1.258 3.049-.433.432-.64.928-.64 1.512 0 .553.213 1.086.64 1.513a4.268 4.268 0 011.258 3.048c0 1.175.957 2.152 2.152 2.152 1.138 0 2.26.47 3.048 1.258.427.427.96.64 1.513.64.52 0 1.091-.22 1.512-.64l.017-.017zM56.06 48.8c0 1.978-1.575 3.552-3.512 3.552-.767 0-1.493.283-2.099.848a3.585 3.585 0 01-2.502 1.05 3.515 3.515 0 01-2.503-1.05 2.97 2.97 0 00-2.058-.848 3.557 3.557 0 01-3.552-3.552c0-.767-.283-1.493-.848-2.058a3.515 3.515 0 01-1.05-2.503c0-.969.364-1.816 1.05-2.502a2.97 2.97 0 00.848-2.059 3.557 3.557 0 013.552-3.552c.767 0 1.493-.282 2.058-.848a3.557 3.557 0 015.005 0 2.97 2.97 0 002.059.848 3.557 3.557 0 013.552 3.552c0 .767.282 1.493.847 2.059a3.557 3.557 0 010 5.005 2.969 2.969 0 00-.847 2.058zm-.215 3.82l1.94 4.122.961 2.078-5.093-1.856-1.061 2.918-.911 2.036-.938-1.963-2.018-4.318 1.268-.593 1.613 3.451 1.21-3.325 3.235 1.176-1.472-3.13 1.266-.596zm-9.331 3.21l-2.089 4.047-1.063 2.028-1.629-5.171-2.96.934-2.17.518.986-1.94 2.197-4.23 1.243.646-1.757 3.38 3.375-1.065 1.036 3.284 1.587-3.074 1.244.642z"/><path fill-rule="evenodd" clip-rule="evenodd" d="M53.74 41.38a6.331 6.331 0 00-7.525-3.558 6.333 6.333 0 107.997 6.95v-.002l-1.43-.194a4.891 4.891 0 11-.364-2.618l1.322-.577z"/></g><defs><clipPath id="clip0"><path fill="#fff" d="M0 0h60v60H0z"/></clipPath></defs></svg>
